packages/icons/src/ci-active-build.svg

<svg fill="none" viewBox="0 0 24 20" xmlns="http://www.w3.org/2000/svg"><path d="m18.9314 0-5.068 2.92614v2.0572l-1.778-1.02655-5.06771 2.92613v2.15623l-1.94998-1.12587-5.06771 2.92642v5.852l5.068 2.9261 5.0683-2.9261v-2.1559l1.9494 1.1258 5.068-2.9261v-2.0569l1.7777 1.0265 5.0686-2.92611v-5.85285zm3.7503 3.17984-3.7497 2.16502-3.7503-2.16502 3.7497-2.16501zm-8.8183 2.81833v2.27692l-1.7774 1.02626-3.74968-2.16472 3.74938-2.16501zm2.4114 3.15758-1.0895-.629 1.0895-.62899zm-1.5325-1.38807v-1.2621l1.0928.63105zm-7.72432 2.28632v2.0789l-1.94968 1.1255-3.74996-2.165 3.74966-2.16529zm2.23913 2.9592-1.00311-.5795 1.00311-.5795zm-1.36023-1.388v-1.0638l.92108.5317zm-7.017984.229 3.749954 2.1654-.00059 4.3291-3.749658-2.165v-4.3295zm8.378214 4.3298-3.74995 2.165.00029-4.3292 1.86766-1.0784 1.882 1.0869zm-1.36023-6.63744v-1.6491l3.74962 2.16504-.0003 4.3297-1.5099-.8721v-2.6807zm8.37792 2.68094-3.7497 2.165.0003-4.33 1.7807-1.02804 1.9687 1.13644zm-1.5325-6.73675v-1.54978l3.7502 2.1653-.0005 4.32973-1.3383-.77284v-2.78024zm4.6286 4.94525.0005-4.33002 3.7497-2.16501v4.33002z" fill="#6b6d85"/></svg>

<svg viewBox="0 0 24 20" fill="none" xmlns="http://www.w3.org/2000/svg"><path d="M18.9314 0L13.8634 2.92614V4.98334L12.0854 3.95679L7.01769 6.88292V9.03915L5.06771 7.91328L0 10.8397V16.6917L5.068 19.6178L10.1363 16.6917V14.5358L12.0857 15.6616L17.1537 12.7355V10.6786L18.9314 11.7051L24 8.77899V2.92614L18.9314 0ZM22.6817 3.17984L18.932 5.34486L15.1817 3.17984L18.9314 1.01483L22.6817 3.17984ZM13.8634 5.99817V8.27509L12.086 9.30135L8.33632 7.13663L12.0857 4.97162L13.8634 5.99817ZM16.2748 9.15575L15.1853 8.52675L16.2748 7.89776V9.15575ZM14.7423 7.76768V6.50558L15.8351 7.13663L14.7423 7.76768ZM7.01798 10.054V12.1329L5.0683 13.2584L1.31834 11.0934L5.068 8.92811L7.01798 10.054ZM9.25711 13.0132L8.254 12.4337L9.25711 11.8542V13.0132ZM7.89688 11.6252V10.5614L8.81796 11.0931L7.89688 11.6252ZM0.878896 11.8542L4.62885 14.0196L4.62826 18.3487L0.878602 16.1837V11.8542H0.878896ZM9.25711 16.184L5.50716 18.349L5.50745 14.0198L7.37511 12.9414L9.25711 14.0283V16.184ZM7.89688 9.54656V7.89746L11.6465 10.0625L11.6462 14.3922L10.1363 13.5201V10.8394L7.89688 9.54656ZM16.2748 12.2275L12.5251 14.3925L12.5254 10.0625L14.3061 9.03446L16.2748 10.1709V12.2275ZM14.7423 5.49075V3.94097L18.4925 6.10627L18.492 10.436L17.1537 9.66316V6.88292L14.7423 5.49075ZM19.3709 10.436L19.3714 6.10598L23.1211 3.94097V8.27099L19.3709 10.436Z" fill="#6B6D85"/></svg>
